images/Traffic_Sign_GR_-_KOK_2009_-_P-38.svg

<svg width="460" height="655" fill="none" xmlns="http://www.w3.org/2000/svg"><path d="M460 0H0v655h460V0z" fill="#0C479D"/><path d="M53 505V150h355v355H53z" fill="#fff"/><path fill-rule="evenodd" clip-rule="evenodd" d="M285.372 370.707c8.962-12.978 17.188-30.526 26.928-38.894 9.699-8.402 18.771-8.257 27.776-13.014 17.666-9.326 32.534-26.469 40.092-45.784 2.733-6.933 5.127-13.347-1.068-18.693-11.658-10.062-37.183 8.149-45.923-5.679L331.481 244H105.848c8.373 34.615 24.271 72.442 40.683 103.553l12.503 23.71H78c0 10.579 45.506 35.795 53.248 39.737h170.058c11.471-2.581 53.487-23.191 68.94-40.366l-84.874.19v-.117zm55.109-68.606c-3.727 2.616-13.203 11.279-20.214 3.502-2.436-2.688-1.735-2.139 3.65-15.963 3.65-9.326 5.534-15.336 12.727-21.419 5.9-4.978 1.258-1.88 16.599-2.617 12.575-.629 14.423-4.609 14.423 2.913 0 6.969-7.782 14.853-12.064 19.538-8.113 8.957-8.41 9.399-15.121 14.046z" fill="#000"/></svg>

<svg width="460" height="655" viewBox="0 0 460 655" fill="none" xmlns="http://www.w3.org/2000/svg">
<path d="M460 0H0V655H460V0Z" fill="#0C479D"/>
<path d="M53 505V150H408V505H53Z" fill="white"/>
<path fill-rule="evenodd" clip-rule="evenodd" d="M285.372 370.707C294.334 357.729 302.56 340.181 312.3 331.813C321.999 323.411 331.071 323.556 340.076 318.799C357.742 309.473 372.61 292.33 380.168 273.015C382.901 266.082 385.295 259.668 379.1 254.322C367.442 244.26 341.917 262.471 333.177 248.643L331.481 244H105.848C114.221 278.615 130.119 316.442 146.531 347.553L159.034 371.263H78C78 381.842 123.506 407.058 131.248 411H301.306C312.777 408.419 354.793 387.809 370.246 370.634L285.372 370.824V370.707ZM340.481 302.101C336.754 304.717 327.278 313.38 320.267 305.603C317.831 302.915 318.532 303.464 323.917 289.64C327.567 280.314 329.451 274.304 336.644 268.221C342.544 263.243 337.902 266.341 353.243 265.604C365.818 264.975 367.666 260.995 367.666 268.517C367.666 275.486 359.884 283.37 355.602 288.055C347.489 297.012 347.192 297.454 340.481 302.101Z" fill="black"/>
</svg>
